packages/core/src/svgs/ren.svg

<svg width="24" height="24" viewBox="0 0 24 24" fill="none" xmlns="http://www.w3.org/2000/svg">
<g clip-path="url(#clip0_31_16977)">
<path d="M0 0H24V24H0V0Z" fill="#16406E"/>
<path d="M11.9515 5.1958L5.93012 8.6758V8.78937L7.65512 7.84394L7.82569 8.01537H7.83726L8.84483 7.48566L8.9644 7.7248L12.6368 5.59051L11.9515 5.1958ZM12.8914 5.73709L5.93569 9.74594V9.91652L7.66069 8.90894L7.83126 9.14809L9.79583 8.02094L9.9154 8.25966L13.608 6.1498L12.8914 5.73709ZM13.8857 6.30966L5.93569 10.8731V10.9867L7.66069 10.0417L7.83126 10.2752H7.83726L10.7464 8.5558L10.866 8.79494L14.5453 6.68937L13.8857 6.30966ZM14.8311 6.85394L5.92969 11.9432V12.1142L7.65512 11.1067L7.82569 11.3454H7.83726L11.6974 9.15366L11.817 9.33023L15.4903 7.23323L14.8311 6.85394ZM15.7663 7.39223L5.93569 13.0648V13.1899L7.66069 12.2394L7.83126 12.4159H7.83726L12.648 9.68294L12.7675 9.85951L16.4747 7.80023L15.7663 7.39223ZM16.7014 7.93051L5.93569 14.1409V14.3175L7.66069 13.3099L7.83126 13.5431H7.83726L13.599 10.2182L13.7181 10.4574L17.4154 8.34151L16.7014 7.93051ZM17.6417 8.47223L5.93569 15.2681V15.3821L7.66069 14.4371L7.83126 14.6762L13.5985 11.2888L13.7185 11.5279L18 9.09109V8.67837L17.6417 8.47223ZM7.66069 15.5072L6.70969 16.0995L6.52754 15.9795L18 9.38166V10.1617L13.7185 12.6555L13.5985 12.4164L7.77426 15.7412L7.66069 15.5072ZM13.7185 13.7822L13.5985 13.5431L8.78226 16.2761L8.61126 16.0425L7.66069 16.6288L7.47854 16.5718L18 10.4629V11.2258L13.7185 13.7822ZM9.61926 16.6348L8.61126 17.1697L8.60569 17.1641L8.43512 17.1071L18 11.5845V12.3589L13.7185 14.8528L13.6045 14.6137L9.73283 16.8735L9.61926 16.6348ZM10.5698 17.1697L9.56226 17.7049V17.6938L9.38012 17.6368L18 12.6551V13.4865L13.7185 15.9799L13.5985 15.7408L10.6838 17.4088L10.5698 17.1697ZM10.5073 18.2972L10.3307 18.1772L18 13.7827V14.5571L13.7185 17.0505L13.5985 16.8114L11.6344 17.9385L11.5208 17.7054L10.5073 18.2972ZM12.4088 18.2402L11.4578 18.8321L11.3387 18.7751L18 14.8532V15.6847L13.7185 18.1781L13.5985 17.9389L12.5914 18.4738L12.4088 18.2402Z" fill="white"/>
</g>
<defs>
<clipPath id="clip0_31_16977">
<rect width="24" height="24" fill="white"/>
</clipPath>
</defs>
</svg>

<svg xmlns="http://www.w3.org/2000/svg" width="24" height="24" fill="none" viewBox="0 0 24 24"><g clip-path="url(#a)"><path fill="#16406E" d="M0 0h24v24H0z"/><path fill="#fff" d="M11.952 5.196 5.93 8.676v.113l1.725-.945.17.171h.012l1.008-.53.12.24 3.672-2.134zm.94.541L5.935 9.746v.17L7.66 8.91l.17.24L9.796 8.02l.12.239 3.692-2.11zm.994.573-7.95 4.563v.114l1.725-.945.17.233h.006l2.91-1.72.119.24 3.68-2.106zm.945.544-8.901 5.09v.17l1.725-1.007.17.238h.012l3.86-2.191.12.176 3.673-2.097zm.935.538-9.83 5.673v.125l1.725-.95.17.176h.006l4.811-2.733.12.177 3.707-2.06zm.935.539L5.936 14.14v.177L7.66 13.31l.17.233h.006l5.762-3.325.12.24 3.696-2.116zm.94.541L5.937 15.268v.114l1.725-.945.17.24 5.767-3.388.12.239L18 9.09v-.413zm-9.98 7.035-.951.592-.182-.12L18 9.383v.78l-4.281 2.493-.12-.239-5.825 3.325zm6.058-1.725-.12-.239-4.817 2.733-.17-.233-.951.586-.182-.057L18 10.462v.764zm-4.1 2.853-1.008.535-.005-.006-.17-.057L18 11.585v.774l-4.281 2.494-.114-.24-3.872 2.26zm.95.535-1.007.535v-.011l-.182-.057L18 12.655v.832l-4.281 2.493-.12-.24-2.915 1.669zm-.062 1.127-.176-.12L18 13.783v.774l-4.281 2.493-.12-.239-1.965 1.128-.113-.234zm1.902-.057-.951.592-.12-.057L18 14.853v.832l-4.281 2.493-.12-.24-1.008.536z"/></g><defs><clipPath id="a"><path fill="#fff" d="M0 0h24v24H0z"/></clipPath></defs></svg>
